svgs/sharp-solid/bracket-curly-right.svg

<svg xmlns="http://www.w3.org/2000/svg" viewBox="0 0 256 512"><!--! Font Awesome Pro 6.6.0 by @fontawesome - https://fontawesome.com License - https://fontawesome.com/license (Commercial License) Copyright 2024 Fonticons, Inc. --><path d="M160 32l32 0 0 32 0 114.7 54.6 54.6 9.4 9.4 0 26.5-9.4 9.4L192 333.3 192 448l0 32-32 0-96 0-32 0 0-64 32 0 64 0 0-96 0-13.3 9.4-9.4L178.7 256l-41.4-41.4-9.4-9.4 0-13.3 0-96L64 96 32 96l0-64 32 0 96 0z"/></svg>

<svg xmlns="http://www.w3.org/2000/svg" viewBox="0 0 256 512"><!--! Font Awesome Pro 6.4.2 by @fontawesome - https://fontawesome.com License - https://fontawesome.com/license (Commercial License) Copyright 2023 Fonticons, Inc. --><path d="M160 32h32V64 178.7l54.6 54.6 9.4 9.4v26.5l-9.4 9.4L192 333.3V448v32H160 64 32V416H64h64V320 306.7l9.4-9.4L178.7 256l-41.4-41.4-9.4-9.4V192 96H64 32V32H64h96z"/></svg>
